images/why-lease-3.svg

<svg width="150" height="150" viewBox="0 0 150 150" fill="none" xmlns="http://www.w3.org/2000/svg">
<circle cx="75" cy="75" r="74.5" fill="white" stroke="#0066FF"/>
<path d="M48.2093 57.2093C49.944 55.4746 52.2967 54.5 54.75 54.5H95.25C96.4647 54.5 97.6676 54.7393 98.7898 55.2041C99.9121 55.669 100.932 56.3503 101.791 57.2093C102.65 58.0682 103.331 59.0879 103.796 60.2102C104.261 61.3324 104.5 62.5353 104.5 63.75V67H45.5V63.75C45.5 61.2967 46.4746 58.944 48.2093 57.2093ZM45.5 86.25V72.5H104.5V86.25C104.5 87.4647 104.261 88.6676 103.796 89.7898C103.331 90.9121 102.65 91.9318 101.791 92.7907C100.932 93.6497 99.9121 94.331 98.7898 94.7959C97.6676 95.2607 96.4647 95.5 95.25 95.5H54.75C52.2967 95.5 49.944 94.5254 48.2093 92.7907C46.4746 91.056 45.5 88.7033 45.5 86.25ZM93.75 82H86.25C85.5207 82 84.8212 82.2897 84.3055 82.8055C83.7897 83.3212 83.5 84.0207 83.5 84.75C83.5 85.4793 83.7897 86.1788 84.3055 86.6945C84.8212 87.2103 85.5207 87.5 86.25 87.5H93.75C94.4793 87.5 95.1788 87.2103 95.6945 86.6945C96.2103 86.1788 96.5 85.4793 96.5 84.75C96.5 84.0207 96.2103 83.3212 95.6945 82.8055C95.1788 82.2897 94.4793 82 93.75 82Z" fill="#0066FF" stroke="#0066FF"/>
</svg>

<svg xmlns="http://www.w3.org/2000/svg" width="150" height="150" fill="none" viewBox="0 0 150 150"><circle cx="75" cy="75" r="74.5" fill="#fff" stroke="#06f"/><path fill="#06f" stroke="#06f" d="M48.21 57.21a9.25 9.25 0 0 1 6.54-2.71h40.5a9.25 9.25 0 0 1 9.25 9.25V67h-59v-3.25a9.25 9.25 0 0 1 2.71-6.54ZM45.5 86.25V72.5h59v13.75a9.247 9.247 0 0 1-9.25 9.25h-40.5a9.25 9.25 0 0 1-9.25-9.25ZM93.75 82h-7.5a2.75 2.75 0 1 0 0 5.5h7.5a2.75 2.75 0 1 0 0-5.5Z"/></svg>
